X:217
T:score292
L:1/8
Q:1/4=120
M:4/4
I:linebreak $
K:Eb
 e4 d2 c2 | B3 A F2 z2 | e4 d2 c2 | B3 A F2 z2 | g4 a3 g | f>e f>e d>c d>c | B>c B4 cd | e6 z2 |] %8
